icon/pk/pigeon.svg

<svg viewBox="0 0 48 48" fill="none" xmlns="http://www.w3.org/2000/svg" height="1em" width="1em">
  <path d="M13.9995 26C12.9602 24.2074 11.8506 20.4489 16.008 15.7556C17.2206 14.6148 18.8143 13.1156 21.7244 12.3333C24.8424 10.8667 26.4014 8.52 24.3227 5C25.8817 5.97778 28.9997 9.69333 28.9997 16.7333" stroke="black" stroke-width="4" stroke-linecap="round" stroke-linejoin="round"/>
  <path d="M16.2527 27.9296C8 23.5714 4.51053 30.1954 4 33.7547C8 33.7547 12.679 36.6663 14.7211 39.5785C18.3969 44.238 24.0807 43.1379 26.4632 42.0053C33.8148 38.1223 36.3334 38.4459 36.6737 39.0931C37.0822 42.1995 38.2053 42.9761 38.7159 42.9761C42.3917 43.3644 43.651 38.9313 43.8211 36.6662C44.638 27.3471 42.4597 26.9588 41.2685 27.9296C36.3674 33.7541 33.4404 34.8866 32.5895 34.7247C28.9137 33.9481 29.3562 32.4597 30.0369 31.8125C36.5716 26.3763 36.5036 14.3391 35.6527 9C33.2022 14.8245 29.186 17.2513 27.4843 17.7367C17.2737 20.4548 15.7421 25.6645 16.2527 27.9296Z" fill="#2F88FF" stroke="black" stroke-width="4" stroke-linecap="round" stroke-linejoin="round"/>
  <circle cx="12" cy="31.4121" r="2" fill="white"/>
</svg>

<svg width="48" height="48" fill="none" xmlns="http://www.w3.org/2000/svg"><path d="M14 26c-1.04-1.793-2.15-5.551 2.008-10.244 1.213-1.141 2.806-2.64 5.716-3.423C24.842 10.867 26.401 8.52 24.323 5 25.882 5.978 29 9.693 29 16.733" stroke="#000" stroke-width="4" stroke-linecap="round" stroke-linejoin="round"/><path d="M16.253 27.93C8 23.57 4.51 30.195 4 33.755c4 0 8.679 2.911 10.721 5.823 3.676 4.66 9.36 3.56 11.742 2.427 7.352-3.883 9.87-3.56 10.21-2.912.41 3.106 1.532 3.883 2.043 3.883 3.676.388 4.935-4.045 5.105-6.31.817-9.319-1.361-9.707-2.552-8.736-4.902 5.824-7.829 6.957-8.68 6.795-3.675-.777-3.233-2.265-2.552-2.913C36.572 26.377 36.504 14.34 35.653 9c-2.45 5.825-6.467 8.251-8.169 8.737-10.21 2.718-11.742 7.928-11.231 10.193Z" fill="#2F88FF" stroke="#000" stroke-width="4" stroke-linecap="round" stroke-linejoin="round"/><circle cx="12" cy="31.412" r="2" fill="#fff"/></svg>
